X:62
T: DER KLEINE MANN IM STAUBBEDECKTEN KLEIDE
N: B0083
O: Europa, Mitteleuropa, Deutschland, Rheinland
R: Helden -, Ehren -, Gedaechtnis -, Kriegs - Lied
M: 4/4
L: 1/8
K: G
DDD | G3GGGGB | BAA4
AB | c2A2F2D2 | B2z3
GGG | e3eeege | edd4
Bc | d2GAB2A2 | d
GGAB2A2 | dGGAB2A2 | G2z3

